!!!ONB: MCCC : IWM0413_01 : Extracted Monophonic Melody
!!!COM: Mozart, Wolfgang Amadeus
!!!OPR: Piano Sonata No.13
!!!OMV: 1
!!!SCT: K.333 ; K⁶.315c
!!!ODT: 1783///
**kern
*thru
*staff1
*>A
*clefG2
*k[b-e-]
*B-:
*M4/4
*met(c)
*MM120
16gg
16ff
16ee-
16dd
=1
8cc
8b-
4.b-
8dd
8gg
8dd
=2
4ff
4.ee-
16ff
16gg
16ff
16ee-
16dd
16cc
=3
4b-
4.a
8a
8b-
8cc
=4
4cc
4dd
8r
16ff
16ee
16gg
16ff
16ee-
16dd
=5
8dd
4cc
8b-
8dd
4cc
8a
=6
16b-
16cc
16b-
16a
16b-
16cc
16dd
16ee-
16ee
16ff
16ee
16ff
16gg
16ff
16ee-
16dd
=7
8dd
8cc
8cc
8b-
8dd
8cc
8cc
8a
=8
8b-
16cc
16dd
16ee-
16ff
16gg
16aa
16bb-
16ccc
16ddd
16eee-
8fff
8fff
=9
8fff
4eee-
8ddd
8ddd
8ccc
8bb-
8aa
=10
4bb-
4b-
2r
=11
8c
8B-
4.B-
8b-
8a
8g
=12
4f
[4e
16e]
16g
16f
16a
16g
16b-
16a
16cc
=13
16b-
16g
16ee
16cc
16gg
16ee
16bb-
16aa
16bb-
16aa
16gg
16ff
16ee
16dd
16cc
16b-
=14
16b-
16a
16dd
16cc
4cc
4r
16ddd
16ccc
16bb-
16aa
=15
4.gg
8ee
16ff
16ccc
16bb
16ccc
16ddd
16ccc
16bb-
16aa
=16
8gg
4gg
8ee
16ff
16ccc
16bb
16ccc
16ddd
16ccc
16bb-
16aa
=17
8aa
8gg
8r
8gg
8gg
8ff
8r
8ff
=18
16ee
16ff
16ee
16cc
16ff
16gg
16ff
16cc
16gg
16aa
16gg
16cc
16aa
16bb-
16aa
16cc
=19
8bb-
8bb-
8r
8gg
8bb-
8aa
8gg
8ff
=20
16ee
16cc
16bb
16ccc
16ff
16cc
16bb
16ccc
16gg
16cc
16bb
16ccc
16aa
16cc
16bb
16ccc
=21
8bb-
8bb-
8r
8gg
8bb-
8aa
8gg
8ff
=22
16ee
16ccc
16gg
16ee
16cc
16g
16e
16c
2r
=23
4.cc
16dd
16cc
8b-
8a
8g
8f
=24
8f
8dd
4.dd
8cc
8ee
8ff
=25
8ff
4g
8a
8ff
4g
8a
=26
4cc
8.b-
32a
32b-
8a
8a
8b-
8cc
=27
8cc#
4dd
16cc
16b-
8a
8g
8a
8b-
=28
8dd
4cc
16b-
16a
8g
8f
8g
8a
=29
8cc
4b-
8g
8b-
4a
8f
=30
16e
16f
16g
16a
16b
16cc
16b
16cc
4c
4r
=31
4.cc
16dd
16cc
8b-
8a
8g
8f
=32
8f
8dd
4.dd
8cc
8ee
8ff[
=33
8ff]
8g
8a
8ff[
8ff]
8g
8a
8ff
=34
4cc
8b
8b-
8a
8a
8b-
8cc
=35
4.dd
16ee
16ff#
16gg
16aa
16bb-
16aa
16gg
16aa
16ff
16gg
=36
16ee
16ff
16dd
16ee
16cc
16dd
16b-
16cc
16a
16b-
16cc
16dd
16ee
16ff
16ee
16ff
=37
16gg
16ff
16ee
16dd
16ee
16dd
16cc
16b-
4a
8.g
32f
32g
=38
4f
4r
2r
=39
8bb-
8gg
8ee
8ee
8bb-
8gg
8ee
8ee
=40
8ff
8gg
8aa
8bb-
8bb
8ccc
8bb
8ccc
=41
8bb-
8gg
8ee
8ee
8bb-
8gg
8ee
8ee
=42
8ff
8gg
8aa
8bb-
8bb
8ccc
8bb
8ccc
=43
2ddd
2ee
=44
2bb-
2aa
=45
16aa
16gg
16bb-
16aa
16ccc
16bb-
16aa
16gg
4ff
4ee
=46
8r
8ff
8ee
8ff
8r
8ee-
8dd
8ee-
=47
8r
8dd
8ddd
8ddd
8r
8ddd
8dd
8dd
=48
8r
8cc
8ccc
8ccc
8r
8ccc
8cc
8cc
=49
8cc#
8dd
8ee
8ff
4f
8a
8g
=50
8f
16f
16a
16g
16b-
16a
16cc
8b-
16f
16a
16g
16b-
16a
16cc
=51
8b-
16f
16a
16g
16b-
16a
16cc
16b-
16dd
16cc
16ee-
16dd
16ff
16ee
16gg
=52
16ff
16gg
16aa
16gg
16ff
16ee-
16dd
16cc#
16dd
16cc
16b-
16a
16g
16f
16e
16d
=53
16c
16f
16a
16cc
8ff
8a
8cc
8b-
8a
8g
=54
8f
16ff
16aa
16gg
16bb-
16aa
16ccc
8bb-
16ff
16aa
16gg
16bb-
16aa
16ccc
=55
8bb-
16ff
16aa
16gg
16bb-
16aa
16ccc
16bb-
16ff
16ccc
16ff
16ddd
16ff
16eee
16ff
=56
16fff
16eee
16ddd
16ccc
16bb-
16aa
16gg
16ff
16ddd
16ccc
16bb-
16aa
16gg
16ff
16ee
16dd
=57
8cc
8ccc
8ccc
8ccc
16ccc
16aa
16ff
16cc
16ff
16cc
16a
16f
=58
1g
=59
8f
8ff
8r
8ff
8ee
8ff
8gg
8aa
=60
16bb-
16ccc
16ddd
16ccc
16bb-
16aa-
16gg
16ff
16ee
16ff
16gg
16ff
16ee
16dd
16cc
16b-
=61
8a
8a
8r
8f
8e
8f
8g
8a
=62
8b-
8b-
8cc
8dd
8dd
8cc
8r
8e
=63
2g
4f
*>A
*M4/4
16gg
16ff
16ee-
16dd
=64
8cc
8b-
4.b-
8dd
8gg
8dd
=65
4ff
4.ee-
16ff
16gg
16ff
16ee-
16dd
16cc
=66
4b-
4.a
8a
8b-
8cc
=67
4cc
4dd
8r
16ff
16ee
16gg
16ff
16ee-
16dd
=68
8dd
4cc
8b-
8dd
4cc
8a
=69
16b-
16cc
16b-
16a
16b-
16cc
16dd
16ee-
16ee
16ff
16ee
16ff
16gg
16ff
16ee-
16dd
=70
8dd
8cc
8cc
8b-
8dd
8cc
8cc
8a
=71
8b-
16cc
16dd
16ee-
16ff
16gg
16aa
16bb-
16ccc
16ddd
16eee-
8fff
8fff
=72
8fff
4eee-
8ddd
8ddd
8ccc
8bb-
8aa
=73
4bb-
4b-
2r
=74
8c
8B-
4.B-
8b-
8a
8g
=75
4f
[4e
16e]
16g
16f
16a
16g
16b-
16a
16cc
=76
16b-
16g
16ee
16cc
16gg
16ee
16bb-
16aa
16bb-
16aa
16gg
16ff
16ee
16dd
16cc
16b-
=77
16b-
16a
16dd
16cc
4cc
4r
16ddd
16ccc
16bb-
16aa
=78
4.gg
8ee
16ff
16ccc
16bb
16ccc
16ddd
16ccc
16bb-
16aa
=79
8gg
4gg
8ee
16ff
16ccc
16bb
16ccc
16ddd
16ccc
16bb-
16aa
=80
8aa
8gg
8r
8gg
8gg
8ff
8r
8ff
=81
16ee
16ff
16ee
16cc
16ff
16gg
16ff
16cc
16gg
16aa
16gg
16cc
16aa
16bb-
16aa
16cc
=82
8bb-
8bb-
8r
8gg
8bb-
8aa
8gg
8ff
=83
16ee
16cc
16bb
16ccc
16ff
16cc
16bb
16ccc
16gg
16cc
16bb
16ccc
16aa
16cc
16bb
16ccc
=84
8bb-
8bb-
8r
8gg
8bb-
8aa
8gg
8ff
=85
16ee
16ccc
16gg
16ee
16cc
16g
16e
16c
2r
=86
4.cc
16dd
16cc
8b-
8a
8g
8f
=87
8f
8dd
4.dd
8cc
8ee
8ff
=88
8ff
4g
8a
8ff
4g
8a
=89
4cc
8.b-
32a
32b-
8a
8a
8b-
8cc
=90
8cc#
4dd
16cc
16b-
8a
8g
8a
8b-
=91
8dd
4cc
16b-
16a
8g
8f
8g
8a
=92
8cc
4b-
8g
8b-
4a
8f
=93
16e
16f
16g
16a
16b
16cc
16b
16cc
4c
4r
=94
4.cc
16dd
16cc
8b-
8a
8g
8f
=95
8f
8dd
4.dd
8cc
8ee
8ff[
=96
8ff]
8g
8a
8ff[
8ff]
8g
8a
8ff
=97
4cc
8b
8b-
8a
8a
8b-
8cc
=98
4.dd
16ee
16ff#
16gg
16aa
16bb-
16aa
16gg
16aa
16ff
16gg
=99
16ee
16ff
16dd
16ee
16cc
16dd
16b-
16cc
16a
16b-
16cc
16dd
16ee
16ff
16ee
16ff
=100
16gg
16ff
16ee
16dd
16ee
16dd
16cc
16b-
4a
8.g
32f
32g
=101
4f
4r
2r
=102
8bb-
8gg
8ee
8ee
8bb-
8gg
8ee
8ee
=103
8ff
8gg
8aa
8bb-
8bb
8ccc
8bb
8ccc
=104
8bb-
8gg
8ee
8ee
8bb-
8gg
8ee
8ee
=105
8ff
8gg
8aa
8bb-
8bb
8ccc
8bb
8ccc
=106
2ddd
2ee
=107
2bb-
2aa
=108
16aa
16gg
16bb-
16aa
16ccc
16bb-
16aa
16gg
4ff
4ee
=109
8r
8ff
8ee
8ff
8r
8ee-
8dd
8ee-
=110
8r
8dd
8ddd
8ddd
8r
8ddd
8dd
8dd
=111
8r
8cc
8ccc
8ccc
8r
8ccc
8cc
8cc
=112
8cc#
8dd
8ee
8ff
4f
8a
8g
=113
8f
16f
16a
16g
16b-
16a
16cc
8b-
16f
16a
16g
16b-
16a
16cc
=114
8b-
16f
16a
16g
16b-
16a
16cc
16b-
16dd
16cc
16ee-
16dd
16ff
16ee
16gg
=115
16ff
16gg
16aa
16gg
16ff
16ee-
16dd
16cc#
16dd
16cc
16b-
16a
16g
16f
16e
16d
=116
16c
16f
16a
16cc
8ff
8a
8cc
8b-
8a
8g
=117
8f
16ff
16aa
16gg
16bb-
16aa
16ccc
8bb-
16ff
16aa
16gg
16bb-
16aa
16ccc
=118
8bb-
16ff
16aa
16gg
16bb-
16aa
16ccc
16bb-
16ff
16ccc
16ff
16ddd
16ff
16eee
16ff
=119
16fff
16eee
16ddd
16ccc
16bb-
16aa
16gg
16ff
16ddd
16ccc
16bb-
16aa
16gg
16ff
16ee
16dd
=120
8cc
8ccc
8ccc
8ccc
16ccc
16aa
16ff
16cc
16ff
16cc
16a
16f
=121
1g
=122
8f
8ff
8r
8ff
8ee
8ff
8gg
8aa
=123
16bb-
16ccc
16ddd
16ccc
16bb-
16aa-
16gg
16ff
16ee
16ff
16gg
16ff
16ee
16dd
16cc
16b-
=124
8a
8a
8r
8f
8e
8f
8g
8a
=125
8b-
8b-
8cc
8dd
8dd
8cc
8r
8e
=126
2g
4f
*>B
16dd
16cc
16b-
16a
=127
8g
8f
4.f
8ff
8gg
8aa
=128
8.bb-
16gg
4ee
4r
16cc
16b-
16a
16g
=129
8f
8e
4.e
8gg
8aa
8bb-
=130
8.ccc
16aa
4ff#
8r
8aa
8bb-
8ccc
=131
8.ddd
16bb-
8gg
8r
8.bb-
16gg
8ee
8r
=132
8.ff
16dd
4b
8r
8b
8b
8b
=133
16cc
16aa
16ff
16cc
16a
16ff
16cc
16a
8cc
8b-
8a
8g
=134
4f
4r
16r
16f
16g
16a-
16b-
16cc
16dd
16ee
=135
16ff
16cc
16aa-
16gg
16ff
16cc
16aa-
16gg
16ff
16gg
16ee-
16ff
16dd
16ee-
16cc
16dd
=136
8b
4fff
4eee-
4ddd
[8ccc
=137
8ccc]
4bb
4aa-
4gg
8ff
=138
8ff
8ee
4ee-
16r
16ee-
16dd
16ee-
16ff
16ee-
16dd
16ee-
=139
8.gg-
16ee-
8.ee-
32dd
32ee-
8.bb-
16ee-
8.ee-
32dd
32ee-
=140
8aa
8ccc
[4eee-
16eee-]
16fff
16ddd
16eee-
16ccc
16ddd
16bb-
16ccc
=141
16aa
16bb-
16ccc
16bb-
16aa
16bb-
16ccc
16ddd
16eee-
16ddd
16ccc
16bb-
16aa
16gg
16ff
16ee-
=142
8ee-
8dd
4.dd
8dd
8ddd
[8ccc
=143
8ccc]
4bb-
[8aa
16aa]
16gg
16bb-
16aa
16ccc
16bb-
16aa
16gg
=144
16ff#
16dd
16ddd
16ccc#
16ddd
16ccc#
16ddd
16ccc#
16ddd
16eee-
16ccc
16ddd
16bb-
16ccc
16aa
16bb-
=145
16gg
16aa
16ff
16gg
16ee-
16ff
16dd
16ee-
8cc#
8bb-
8aa
8gg
=146
16ff#
16cc#
16dd
16cc#
16dd
16cc#
16dd
16cc#
16dd
16ee-
16cc
16dd
16b-
16cc
16a
16b-
=147
16g
16a
16f
16g
16e-
16f
16d
16e-
8c#
8g
8b-
8c#
=148
8d
8dd
8r
8dd
8r
8dd
8r
8dd
=149
8r
8dd
8cc#
8dd
8cc#
8dd
8cc#
8dd
=150
4ff
4ee-
16r
16ee-
16dd
16ee-
16ff
16ee-
16dd
16ee-
=151
4bb-
4aa
16r
16aa
16gg
16aa
16bb-
16aa
16gg
16aa
=152
4fff
4eee-
16r
16eee-
16ddd
16eee-
16fff
16eee-
16ddd-
16ccc
=153
4bb-
4aa
16r
16eee-
16ddd
16eee-
16fff
16eee-
16ddd-
16ccc
=154
16bb-
16aa
16eee-
16ddd
16fff
16eee-
16ddd-
16ccc
16bb-
16aa
16eee-
16ddd
16fff
16eee-
16ddd-
16ccc
=155
16bb-
16aa
16ccc
16bb
16ddd
16ccc
16bb-
16aa
16gg
16ff
16gg
16ff#
16aa
16gg
16ff
16ee-
=156
8dd
8cc
8dd
8ee-
8ee
8ff
16gg
16ff
16ee-
16dd
=157
8cc
8b-
4.b-
8dd
8gg
8dd
=158
4ff
4.ee-
16ff
16gg
16ff
16ee-
16dd
16cc
=159
4b-
4.a
8a
8b-
8cc
=160
4cc
4dd
8r
16ff
16ee
16gg
16ff
16ee-
16dd
=161
8dd
4cc
8b-
8dd
4cc
8a
=162
16b-
16cc
16b-
16a
16b-
16cc
16dd
16ee-
16ee
16ff
16ee
16ff
16gg
16ff
16ee-
16dd
=163
8dd
8cc
8cc
8b-
8dd
8cc
8cc
8a
=164
8b-
16cc
16dd
16ee-
16ff
16gg
16aa
16bb-
16ccc
16ddd
16eee-
8fff
8fff
=165
8fff
4eee-
8ddd
8ddd
8ccc
8bb-
8aa
=166
4bb-
4b-
2r
=167
8c
8B-
4.B-
8b-
8b-
8cc
=168
8b-
8a
4.a-
8a-
8a-
8a-
=169
16aa-
16bb-
16gg
16aa-
16ff
16gg
16ee-
16ff
16dd
16ee-
16cc
16dd
16b-
16cc
16a-
16b-
=170
8a-
8g
4.g
8gg
8gg
8ff
=171
8ff
8ee
4.ee
8ddd-
8ddd-
8ee
=172
8gg
8ff
4.ff
8ff#
8gg
8ee-
=173
8cc#
8dd
4dd
8r
8ff
16gg
16ff
16ee-
16dd
=174
4.cc
8a
16b-
16ff
16ee
16ff
16gg
16ff
16ee-
16dd
=175
8cc
4cc
8a
16b-
16ff
16ee
16ff
16gg
16ff
16ee-
16dd
=176
8dd
8cc
8r
8cc
8cc
8b-
8r
8b-
=177
16a
16b-
16a
16f
16b-
16cc
16b-
16f
16cc
16dd
16cc
16f
16dd
16ee-
16dd
16f
=178
8ee-
8ee-
8r
8cc
8ee-
8dd
8cc
8b-
=179
16a
16f
16ee
16ff
16b-
16f
16ee
16ff
16cc
16f
16ee
16ff
16dd
16f
16ee
16ff
=180
8ee-
8ee-
8r
8cc
8ee-
8dd
8cc
8b-
=181
16a
16ff
16cc
16a
16f
16c
16A
16F
2r
=182
4.f
16g
16f
8e-
8d
8c
8B-
=183
8B-
8g
4.g
8f
8a
8b-
=184
8b-
4c
8d
8b-
4c
8d
=185
4f
8.e-
32d
32e-
8d
8d
8e-
8f
=186
8f#
4g
16f
16e-
8d
8c
8d
8e-
=187
8g
4f
16e-
16d
8c
8B-
8c
8d
=188
8f
4e-
8c
8e-
4d
8B-
=189
16A
16B-
16B
16c
16c#
16d
16e-
16e
4f
4r
=190
4.ff
16gg
16ff
8ee-
8dd
8cc
8b-
=191
8b-
8gg
4.gg
8ff
8aa
[8bb-
=192
8bb-]
8cc
8dd
8bb-[
8bb-]
8cc
8dd
8bb-
=193
4ff
8ee
8ee-
8dd
8dd
8ee-
8ff
=194
4.gg
16aa
16bb
16ccc
16ddd
16eee-
16ddd
16ccc
16ddd
16bb-
16ccc
=195
16aa
16bb-
16gg
16aa
16ff
16gg
16ee-
16ff
16dd
16ee-
16ff
16gg
16aa
16bb-
16aa
16bb-
=196
16ccc
16bb-
16aa
16gg
16aa
16gg
16ff
16ee-
4dd
8.cc
32b-
32cc
=197
4b-
4r
2r
=198
8ee-
8cc
8a
8a
8ee-
8cc
8a
8a
=199
8b-
8cc
8dd
8ee-
8ee
8ff
8ee
8ff
=200
8eee-
8ccc
8aa
8aa
8eee-
8ccc
8aa
8aa
=201
8bb-
8ccc
8ddd
8eee-
8eee
8fff
8eee
8fff
=202
2gg
2a
=203
2eee-
2ddd
=204
16ddd
16ccc
16eee-
16ddd
16fff
16eee-
16ddd
16ccc
4bb-
4aa
=205
8r
8bb-
8aa
8bb-
8r
8aa-
8gg
8aa-
=206
8r
8gg
8ff#
8gg
8r
8gg
8eee-
8eee-
=207
8r
8eee-
8ff
8ff
8r
8ff
8ddd
8ddd
=208
8r
8ddd
8ee-
8ee-
8r
8ee-
8ccc
8ccc
=209
8r
8ccc
8dd
8dd
8r
8dd
8bb-
8bb-
=210
8bb-
8cc
4r
8bb-
8dd
4r
=211
8bb-
8ee-
4r
8bb-
8ee
4r
=212
8bb-
8ff
8bb-
8ff#
8bb-
8gg
8eee-
8aa
=213
8ddd
8fff
8bb-
8ddd
8gg
8bb-
8cc
8ee-
=214
16f
16ff
16gg
16ff
16ee-
16dd
16cc
16b-
2cc
=215
8b-
16B-
16d
16c
16e-
16d
16f
8e-
16B-
16d
16c
16e-
16d
16f
=216
8e-
16B-
16d
16c
16e-
16d
16f
16e-
16g
16f
16a-
16g
16b-
16a
16cc
=217
16b-
16cc
16dd
16cc
16b-
16a-
16g
16f#
16g
16cc
16ee-
16dd
16cc
16b-
16a
16g
=218
16f
16b-
16dd
16ff
8bb-
8dd
8ff
8ee-
8dd
8cc
=219
8b-
16b-
16dd
16cc
16ee-
16dd
16ff
8ee-
16bb-
16ddd
16ccc
16eee-
16ddd
16fff
=220
8eee-
16b-
16dd
16cc
16ee-
16dd
16ff
16ee-
16b-
16ff
16b-
16gg
16b-
16aa
16b-
=221
16bb-
16ccc
16ddd
16ccc
16bb-
16aa-
16gg
16ff#
16gg
16ff
16ee-
16dd
16cc
16b-
16a
16g
=222
8f
8ddd
8ddd
8ddd
16ddd
16bb-
16ff
16dd
16bb-
16ff
16dd
16b-
=223
1cc
=224
8b-
8bb-
8r
8bb-
8aa
8bb-
8ccc
8ddd
=225
16eee-
16ddd
16eee-
16ddd
16eee-
16ddd-
16ccc
16bb-
16aa
16bb-
16ccc
16bb-
16aa
16gg
16ff
16ee-
=226
8dd
8dd
8r
8b-
8a
8b-
8cc
8dd
=227
8ee-
8ee-
8ff
8gg
8gg
8ff
8r
8a
=228
2cc
4b-
*>B
16dd
16cc
16b-
16a
=229
8g
8f
4.f
8ff
8gg
8aa
=230
8.bb-
16gg
4ee
4r
16cc
16b-
16a
16g
=231
8f
8e
4.e
8gg
8aa
8bb-
=232
8.ccc
16aa
4ff#
8r
8aa
8bb-
8ccc
=233
8.ddd
16bb-
8gg
8r
8.bb-
16gg
8ee
8r
=234
8.ff
16dd
4b
8r
8b
8b
8b
=235
16cc
16aa
16ff
16cc
16a
16ff
16cc
16a
8cc
8b-
8a
8g
=236
4f
4r
16r
16f
16g
16a-
16b-
16cc
16dd
16ee
=237
16ff
16cc
16aa-
16gg
16ff
16cc
16aa-
16gg
16ff
16gg
16ee-
16ff
16dd
16ee-
16cc
16dd
=238
8b
4fff
4eee-
4ddd
[8ccc
=239
8ccc]
4bb
4aa-
4gg
8ff
=240
8ff
8ee
4ee-
16r
16ee-
16dd
16ee-
16ff
16ee-
16dd
16ee-
=241
8.gg-
16ee-
8.ee-
32dd
32ee-
8.bb-
16ee-
8.ee-
32dd
32ee-
=242
8aa
8ccc
[4eee-
16eee-]
16fff
16ddd
16eee-
16ccc
16ddd
16bb-
16ccc
=243
16aa
16bb-
16ccc
16bb-
16aa
16bb-
16ccc
16ddd
16eee-
16ddd
16ccc
16bb-
16aa
16gg
16ff
16ee-
=244
8ee-
8dd
4.dd
8dd
8ddd
[8ccc
=245
8ccc]
4bb-
[8aa
16aa]
16gg
16bb-
16aa
16ccc
16bb-
16aa
16gg
=246
16ff#
16dd
16ddd
16ccc#
16ddd
16ccc#
16ddd
16ccc#
16ddd
16eee-
16ccc
16ddd
16bb-
16ccc
16aa
16bb-
=247
16gg
16aa
16ff
16gg
16ee-
16ff
16dd
16ee-
8cc#
8bb-
8aa
8gg
=248
16ff#
16cc#
16dd
16cc#
16dd
16cc#
16dd
16cc#
16dd
16ee-
16cc
16dd
16b-
16cc
16a
16b-
=249
16g
16a
16f
16g
16e-
16f
16d
16e-
8c#
8g
8b-
8c#
=250
8d
8dd
8r
8dd
8r
8dd
8r
8dd
=251
8r
8dd
8cc#
8dd
8cc#
8dd
8cc#
8dd
=252
4ff
4ee-
16r
16ee-
16dd
16ee-
16ff
16ee-
16dd
16ee-
=253
4bb-
4aa
16r
16aa
16gg
16aa
16bb-
16aa
16gg
16aa
=254
4fff
4eee-
16r
16eee-
16ddd
16eee-
16fff
16eee-
16ddd-
16ccc
=255
4bb-
4aa
16r
16eee-
16ddd
16eee-
16fff
16eee-
16ddd-
16ccc
=256
16bb-
16aa
16eee-
16ddd
16fff
16eee-
16ddd-
16ccc
16bb-
16aa
16eee-
16ddd
16fff
16eee-
16ddd-
16ccc
=257
16bb-
16aa
16ccc
16bb
16ddd
16ccc
16bb-
16aa
16gg
16ff
16gg
16ff#
16aa
16gg
16ff
16ee-
=258
8dd
8cc
8dd
8ee-
8ee
8ff
16gg
16ff
16ee-
16dd
=259
8cc
8b-
4.b-
8dd
8gg
8dd
=260
4ff
4.ee-
16ff
16gg
16ff
16ee-
16dd
16cc
=261
4b-
4.a
8a
8b-
8cc
=262
4cc
4dd
8r
16ff
16ee
16gg
16ff
16ee-
16dd
=263
8dd
4cc
8b-
8dd
4cc
8a
=264
16b-
16cc
16b-
16a
16b-
16cc
16dd
16ee-
16ee
16ff
16ee
16ff
16gg
16ff
16ee-
16dd
=265
8dd
8cc
8cc
8b-
8dd
8cc
8cc
8a
=266
8b-
16cc
16dd
16ee-
16ff
16gg
16aa
16bb-
16ccc
16ddd
16eee-
8fff
8fff
=267
8fff
4eee-
8ddd
8ddd
8ccc
8bb-
8aa
=268
4bb-
4b-
2r
=269
8c
8B-
4.B-
8b-
8b-
8cc
=270
8b-
8a
4.a-
8a-
8a-
8a-
=271
16aa-
16bb-
16gg
16aa-
16ff
16gg
16ee-
16ff
16dd
16ee-
16cc
16dd
16b-
16cc
16a-
16b-
=272
8a-
8g
4.g
8gg
8gg
8ff
=273
8ff
8ee
4.ee
8ddd-
8ddd-
8ee
=274
8gg
8ff
4.ff
8ff#
8gg
8ee-
=275
8cc#
8dd
4dd
8r
8ff
16gg
16ff
16ee-
16dd
=276
4.cc
8a
16b-
16ff
16ee
16ff
16gg
16ff
16ee-
16dd
=277
8cc
4cc
8a
16b-
16ff
16ee
16ff
16gg
16ff
16ee-
16dd
=278
8dd
8cc
8r
8cc
8cc
8b-
8r
8b-
=279
16a
16b-
16a
16f
16b-
16cc
16b-
16f
16cc
16dd
16cc
16f
16dd
16ee-
16dd
16f
=280
8ee-
8ee-
8r
8cc
8ee-
8dd
8cc
8b-
=281
16a
16f
16ee
16ff
16b-
16f
16ee
16ff
16cc
16f
16ee
16ff
16dd
16f
16ee
16ff
=282
8ee-
8ee-
8r
8cc
8ee-
8dd
8cc
8b-
=283
16a
16ff
16cc
16a
16f
16c
16A
16F
2r
=284
4.f
16g
16f
8e-
8d
8c
8B-
=285
8B-
8g
4.g
8f
8a
8b-
=286
8b-
4c
8d
8b-
4c
8d
=287
4f
8.e-
32d
32e-
8d
8d
8e-
8f
=288
8f#
4g
16f
16e-
8d
8c
8d
8e-
=289
8g
4f
16e-
16d
8c
8B-
8c
8d
=290
8f
4e-
8c
8e-
4d
8B-
=291
16A
16B-
16B
16c
16c#
16d
16e-
16e
4f
4r
=292
4.ff
16gg
16ff
8ee-
8dd
8cc
8b-
=293
8b-
8gg
4.gg
8ff
8aa
[8bb-
=294
8bb-]
8cc
8dd
8bb-[
8bb-]
8cc
8dd
8bb-
=295
4ff
8ee
8ee-
8dd
8dd
8ee-
8ff
=296
4.gg
16aa
16bb
16ccc
16ddd
16eee-
16ddd
16ccc
16ddd
16bb-
16ccc
=297
16aa
16bb-
16gg
16aa
16ff
16gg
16ee-
16ff
16dd
16ee-
16ff
16gg
16aa
16bb-
16aa
16bb-
=298
16ccc
16bb-
16aa
16gg
16aa
16gg
16ff
16ee-
4dd
8.cc
32b-
32cc
=299
4b-
4r
2r
=300
8ee-
8cc
8a
8a
8ee-
8cc
8a
8a
=301
8b-
8cc
8dd
8ee-
8ee
8ff
8ee
8ff
=302
8eee-
8ccc
8aa
8aa
8eee-
8ccc
8aa
8aa
=303
8bb-
8ccc
8ddd
8eee-
8eee
8fff
8eee
8fff
=304
2gg
2a
=305
2eee-
2ddd
=306
16ddd
16ccc
16eee-
16ddd
16fff
16eee-
16ddd
16ccc
4bb-
4aa
=307
8r
8bb-
8aa
8bb-
8r
8aa-
8gg
8aa-
=308
8r
8gg
8ff#
8gg
8r
8gg
8eee-
8eee-
=309
8r
8eee-
8ff
8ff
8r
8ff
8ddd
8ddd
=310
8r
8ddd
8ee-
8ee-
8r
8ee-
8ccc
8ccc
=311
8r
8ccc
8dd
8dd
8r
8dd
8bb-
8bb-
=312
8bb-
8cc
4r
8bb-
8dd
4r
=313
8bb-
8ee-
4r
8bb-
8ee
4r
=314
8bb-
8ff
8bb-
8ff#
8bb-
8gg
8eee-
8aa
=315
8ddd
8fff
8bb-
8ddd
8gg
8bb-
8cc
8ee-
=316
16f
16ff
16gg
16ff
16ee-
16dd
16cc
16b-
2cc
=317
8b-
16B-
16d
16c
16e-
16d
16f
8e-
16B-
16d
16c
16e-
16d
16f
=318
8e-
16B-
16d
16c
16e-
16d
16f
16e-
16g
16f
16a-
16g
16b-
16a
16cc
=319
16b-
16cc
16dd
16cc
16b-
16a-
16g
16f#
16g
16cc
16ee-
16dd
16cc
16b-
16a
16g
=320
16f
16b-
16dd
16ff
8bb-
8dd
8ff
8ee-
8dd
8cc
=321
8b-
16b-
16dd
16cc
16ee-
16dd
16ff
8ee-
16bb-
16ddd
16ccc
16eee-
16ddd
16fff
=322
8eee-
16b-
16dd
16cc
16ee-
16dd
16ff
16ee-
16b-
16ff
16b-
16gg
16b-
16aa
16b-
=323
16bb-
16ccc
16ddd
16ccc
16bb-
16aa-
16gg
16ff#
16gg
16ff
16ee-
16dd
16cc
16b-
16a
16g
=324
8f
8ddd
8ddd
8ddd
16ddd
16bb-
16ff
16dd
16bb-
16ff
16dd
16b-
=325
1cc
=326
8b-
8bb-
8r
8bb-
8aa
8bb-
8ccc
8ddd
=327
16eee-
16ddd
16eee-
16ddd
16eee-
16ddd-
16ccc
16bb-
16aa
16bb-
16ccc
16bb-
16aa
16gg
16ff
16ee-
=328
8dd
8dd
8r
8b-
8a
8b-
8cc
8dd
=329
8ee-
8ee-
8ff
8gg
8gg
8ff
8r
8a
=330
2cc
4b-
==
*-
